packages/icons/svg/Various_ToolBox_32px.svg

<svg xmlns="http://www.w3.org/2000/svg" viewBox="0 0 32 32"><path d="M25 9h-3V6a2 2 0 00-2-2h-8a2 2 0 00-2 2v3H7a4 4 0 00-4 4v12a2 2 0 002 2h22a2 2 0 002-2V13a4 4 0 00-4-4zM12 6h8v3h-8zm-7 7a2 2 0 012-2h18a2 2 0 012 2v4h-5.5v-1.5a.5.5 0 00-1 0V17h-9v-1.5a.5.5 0 00-1 0V17H5zm0 12v-7h5.5v1.5a.5.5 0 001 0V18h9v1.5a.5.5 0 001 0V18H27v7z"/></svg>

<svg xmlns="http://www.w3.org/2000/svg" viewBox="0 0 32 32"><defs></defs><g id="Icon"><path  d="M25,9H22V6a2,2,0,0,0-2-2H12a2,2,0,0,0-2,2V9H7a4,4,0,0,0-4,4V25a2,2,0,0,0,2,2H27a2,2,0,0,0,2-2V13A4,4,0,0,0,25,9ZM12,6h8V9H12ZM5,13a2,2,0,0,1,2-2H25a2,2,0,0,1,2,2v4H21.5V15.5a.5.5,0,0,0-1,0V17h-9V15.5a.5.5,0,0,0-1,0V17H5ZM5,25V18h5.5v1.5a.5.5,0,0,0,1,0V18h9v1.5a.5.5,0,0,0,1,0V18H27v7Z"/></g></svg>
